resources/haticons/SVG/serverfault.svg

<!-- Generated by IcoMoon.io -->
<svg version="1.1" xmlns="http://www.w3.org/2000/svg" width="24" height="24" viewBox="0 0 24 24">
<title>serverfault</title>
<path fill="#e7282d" d="M24 18.185v2.274h-4.89v-2.274zM0 18.079h11.505v2.274h-11.505v-2.279zM12.89 18.079h4.89v2.274h-4.89v-2.279zM19.111 14.472h4.889v2.274h-4.89zM0 14.367h11.505v2.274h-11.505zM12.89 14.367h4.89v2.274h-4.89zM19.111 11.021h4.889v2.273h-4.89zM0 10.916h11.505v2.271h-11.505zM12.89 10.916h4.89v2.271h-4.89zM19.11 7.307h4.89v2.279h-4.89zM0 7.206h11.505v2.274h-11.505v-2.279zM12.89 7.206h4.89v2.274h-4.89v-2.279zM19.111 3.65h4.889v2.276h-4.89v-2.28zM0 3.541h11.505v2.274h-11.505zM12.89 3.541h4.89v2.274h-4.89z"></path>
</svg>

<svg xmlns="http://www.w3.org/2000/svg" width="24" height="24"><path fill="#e7282d" d="M24 18.185v2.274h-4.89v-2.274zm-24-.106h11.505v2.274H0v-2.279zm12.89 0h4.89v2.274h-4.89v-2.279zm6.221-3.607H24v2.274h-4.89zM0 14.367h11.505v2.274H0zm12.89 0h4.89v2.274h-4.89zm6.221-3.346H24v2.273h-4.89zM0 10.916h11.505v2.271H0zm12.89 0h4.89v2.271h-4.89zm6.22-3.609H24v2.279h-4.89zM0 7.206h11.505V9.48H0V7.201zm12.89 0h4.89V9.48h-4.89V7.201zm6.221-3.556H24v2.276h-4.89v-2.28zM0 3.541h11.505v2.274H0zm12.89 0h4.89v2.274h-4.89z"/></svg>
